X:891
T:Directors, The
C:Joe Buchanan's Scottish Tome - Page 450.0
I:450 0
R:Two-step
Z:Carl Allison
L:1/8
M:6/8
K:G
GBd | e2 d ^c2 d | B GBd | e2 d ^c2 d | c3 cBc |
f3 e3 | f3 e3 | f e dc d^c=c | B3 GBd |
e2 d c2 d | B3 GBd | e2 d ^c2 d | c3 dBc |
f3 e3 | f3 e3 | d^cd def | g3 g2 :|
[K:C] g^f=f | e3 ^d2 e | G3- G3 | GAB cBA | d3- d3 |
f3 e2 f | G3- G3 | G^FG c^d | e3- e3 |
e3 ^d2 e | G3- GAB | c2 c cde | f3- f2 A |
A^GA e2 d | cBc d2 c | BAB e2 d | c3- c2 |
